X: 5793
T: Cake Maker's Wife, The
R: reel
M: 4/4
K: Gmajor
BA|:G2DE GABd|e/e/eeg edBA|G2DE GABd|e/g/edB edBA|
G2DE GABd|e/e/eeg edBd|{f}g2gf e/e/edB|AGBA G4|
G2DE GABd|e/e/egf edBA|G2DE GABd|e/g/edB edBA|
G2DE GABd|e/e/eeg edBd|{f}g2gf e/e/edB|AGBA G4|
efge f2ef|g/f/efg fedB|ezdB eBB/B/B|c/B/ABG ABcd|
efga f2ef|g/f/efg fedA|Bcc/c/c BzAB|c/B/ABc ABcd|
efge f2ef|g/f/efg fedB|ezdB eBB/B/B|c/B/ABG AGEF|
G4 GABd|e/e/eeg edBd|1 {f}g2gf e/e/ede|gedB AGBA:|2 {f}g2gf e/e/edB|AGBA G4||

